X:4
T:The Dutch
S:Ashworth's Instructor, p. 29
M:3/8
L:1/16
K:D
%%MIDI program 72
%%MIDI transpose 8
d2|A4 FA|d4 Ad|e4 de|(fefg)f2|A4 FA|d4 Ad|e4 de|f4::(de)|
f2(fedc)|B4 (cd)|e>f(edcB)|A4 A2|dAFAdf|ecAceg|f2(fgfe)|d4:|]

